FINK
CUT[DIE BESTE ZEIT IM JAHR IST MEIN]
REG[Europa, Mitteleuropa, Deutschland]
KEY[F0257  16  F 2/4]
MEL[5_  6_6_4_4_  5_.43_
    5_  4_2_3_1_  2_.32__
    5___  ^_567_7_  6_4#_5__
    0_6_5_4_  3_6_5_.4  3_
    3_4_5_  6_6_6__  ^__5__  5___  ^_0__ //] >>
FCT[Jugend - Lied, Belehrung, religioes]
